dist/img/partners/14.svg

<svg width="122" height="66" viewBox="0 0 122 66" fill="none" xmlns="http://www.w3.org/2000/svg">
<g clip-path="url(#clip0_216_896)">
<path fill-rule="evenodd" clip-rule="evenodd" d="M61.1444 6.71448C46.5122 6.71448 33.2331 9.68993 23.616 14.4881C14.0622 19.2546 8.13893 25.8125 8.13893 33.0158C8.13893 40.2197 14.0625 46.7774 23.6154 51.5441C33.2331 56.3425 46.5122 59.3177 61.1444 59.3177C75.7765 59.3177 89.0553 56.3425 98.6726 51.5441C108.226 46.7771 114.149 40.2197 114.149 33.0158C114.149 25.8125 108.226 19.2546 98.6726 14.4881C89.0553 9.68964 75.7765 6.71448 61.1444 6.71448ZM61.1444 6.11502C75.8757 6.11502 89.255 9.11544 98.9522 13.954C108.714 18.8243 114.767 25.5687 114.767 33.0158C114.767 40.4638 108.714 47.2073 98.9522 52.0782C89.255 56.9167 75.8757 59.9172 61.1444 59.9172C46.4125 59.9172 33.0338 56.9167 23.336 52.0782C13.5745 47.2073 7.52186 40.4638 7.52186 33.0158C7.52215 25.5678 13.5742 18.8246 23.3362 13.954C33.0338 9.11544 46.4125 6.11502 61.1444 6.11502ZM88.2533 43.0904V22.5926H94.252V30.7916L100.106 22.5926H107.095L99.3482 32.519L107.299 43.0904H99.8726L94.252 34.7154V43.0904H88.2533ZM61.199 43.0904L64.1692 22.5926H70.1686L73.6048 34.5988L77.0415 22.5926H83.0402L86.011 43.0904H80.2449L78.8172 31.9045L75.5853 43.0904H71.6242L68.392 31.9045L66.9654 43.0904H61.199ZM58.9563 22.5926V43.0904H52.9575V27.5121H49.1715V35.5939C49.1715 37.9686 48.8242 40.0776 47.0315 41.8459C45.245 43.6071 41.4448 43.5631 39.0954 43.0904V38.1709C39.3939 38.2572 40.0413 38.3806 40.5226 38.3758C43.1264 38.3503 43.1724 35.9655 43.1724 33.8957V22.5926H58.9563ZM18.6227 43.0904V22.5926H24.6218V29.9719H31.2616V22.5926H37.2608V43.0904H31.2616V34.8911H24.6218V43.0904H18.6227ZM61.1446 3.34246C92.5826 3.34246 118.224 16.6722 118.224 33.0156C118.224 49.3594 92.5826 62.6898 61.1446 62.6898C29.7057 62.6898 4.06443 49.3597 4.06443 33.0156C4.06443 16.6722 29.7057 3.34246 61.1446 3.34246ZM61.1444 0.609337C94.5609 0.609337 121.815 15.1671 121.815 33.0161C121.815 50.8648 94.5609 65.4229 61.1444 65.4229C27.727 65.4226 0.472656 50.8648 0.472656 33.0161C0.472656 15.1671 27.727 0.609337 61.1444 0.609337Z" fill="#2056AE"/>
</g>
<defs>
<clipPath id="clip0_216_896">
<rect width="122" height="66" fill="white"/>
</clipPath>
</defs>
</svg>

<svg width="122" height="66" viewBox="0 0 122 66" fill="none" xmlns="http://www.w3.org/2000/svg"><g clip-path="url(#clip0_216_896)"><path fill-rule="evenodd" clip-rule="evenodd" d="M61.144 6.714c-14.632 0-27.91 2.976-37.528 7.774-9.554 4.767-15.477 11.325-15.477 18.528 0 7.204 5.924 13.761 15.476 18.528 9.618 4.799 22.897 7.774 37.53 7.774 14.631 0 27.91-2.975 37.528-7.774 9.553-4.767 15.476-11.324 15.476-18.528 0-7.203-5.923-13.761-15.476-18.528-9.618-4.798-22.897-7.774-37.529-7.774zm0-.599c14.732 0 28.111 3 37.808 7.839 9.762 4.87 15.815 11.615 15.815 19.062 0 7.448-6.053 14.191-15.815 19.062-9.697 4.839-23.076 7.84-37.808 7.84-14.731 0-28.11-3.001-37.808-7.84-9.761-4.87-15.814-11.614-15.814-19.062s6.052-14.191 15.814-19.062c9.698-4.839 23.077-7.839 37.808-7.839zm27.11 36.975V22.593h5.998v8.199l5.854-8.2h6.989l-7.747 9.927L107.3 43.09h-7.426l-5.621-8.375v8.375h-5.999zm-27.055 0l2.97-20.497h6l3.436 12.006 3.436-12.006h6l2.97 20.497h-5.766l-1.428-11.186-3.232 11.186h-3.96l-3.233-11.186-1.427 11.186H61.2zm-2.243-20.497V43.09h-5.998V27.512h-3.786v8.082c0 2.375-.348 4.484-2.14 6.252-1.787 1.761-5.587 1.717-7.937 1.244v-4.92c.299.087.946.21 1.428.206 2.603-.026 2.65-2.41 2.65-4.48V22.593h15.783zM18.623 43.09V22.593h5.999v7.379h6.64v-7.38h5.999V43.09h-6v-8.199h-6.64v8.2h-5.998zM61.145 3.342c31.438 0 57.079 13.33 57.079 29.674 0 16.343-25.641 29.674-57.08 29.674-31.438 0-57.08-13.33-57.08-29.674S29.706 3.342 61.144 3.342zm0-2.733c33.416 0 60.67 14.558 60.67 32.407 0 17.849-27.254 32.407-60.67 32.407C27.726 65.423.472 50.865.472 33.016.473 15.167 27.727.61 61.144.61z" fill="#2056AE"/></g><defs><clipPath id="clip0_216_896"><path fill="#fff" d="M0 0h122v66H0z"/></clipPath></defs></svg>
